src/lib/packages/icons/src/assets/filled/user-lock.svg

<svg width="24" height="24" viewBox="0 0 24 24" fill="none" xmlns="http://www.w3.org/2000/svg">
<path d="M6.00903 6.5C6.00903 4.294 7.80303 2.5 10.009 2.5C12.215 2.5 14.009 4.294 14.009 6.5C14.009 8.706 12.215 10.5 10.009 10.5C7.80303 10.5 6.00903 8.706 6.00903 6.5ZM15.505 13.666C15.5 13.618 15.462 13.5291 15.389 13.4771C14.558 12.8721 13.444 12.5 12 12.5H8C3.94 12.5 2.5 15.47 2.5 18.02C2.5 20.3 3.71 21.5 6 21.5H13.71C13.86 21.5 14 21.38 14.01 21.22C14.01 21.21 14.01 21.21 14.01 21.2V21.1899C14 21.1099 14 21.0201 14 20.9301V18.5699C14 17.5499 14.36 16.7199 15 16.1899V15.75C15 15.061 15.172 14.42 15.473 13.859C15.513 13.784 15.51 13.714 15.505 13.666ZM22.5 18.571V20.928C22.5 21.975 22 22.499 21 22.499H17C16 22.499 15.5 21.975 15.5 20.928V18.571C15.5 17.723 15.845 17.236 16.5 17.074V15.749C16.5 14.371 17.621 13.249 19 13.249C20.379 13.249 21.5 14.371 21.5 15.749V17.074C22.155 17.236 22.5 17.723 22.5 18.571ZM20 15.75C20 15.199 19.552 14.75 19 14.75C18.448 14.75 18 15.199 18 15.75V17H20V15.75Z" fill="currentColor"/>
</svg>

<svg xmlns="http://www.w3.org/2000/svg" width="24" height="24" fill="none"><path fill="currentColor" d="M6.009 6.5c0-2.206 1.794-4 4-4s4 1.794 4 4-1.794 4-4 4-4-1.794-4-4Zm9.496 7.166a.299.299 0 0 0-.116-.189c-.831-.605-1.945-.977-3.389-.977H8c-4.06 0-5.5 2.97-5.5 5.52 0 2.28 1.21 3.48 3.5 3.48h7.71c.15 0 .29-.12.3-.28v-.03c-.01-.08-.01-.17-.01-.26v-2.36c0-1.02.36-1.85 1-2.38v-.44c0-.689.172-1.33.473-1.891a.321.321 0 0 0 .032-.193Zm6.995 4.905v2.357c0 1.047-.5 1.571-1.5 1.571h-4c-1 0-1.5-.524-1.5-1.571v-2.357c0-.848.345-1.335 1-1.497v-1.325c0-1.378 1.121-2.5 2.5-2.5s2.5 1.122 2.5 2.5v1.325c.655.162 1 .649 1 1.497ZM20 15.75a1.001 1.001 0 0 0-2 0V17h2v-1.25Z"/></svg>
